X:199
T:The Bank of Turf
M:6/8
L:1/8
R:jig
K:D
dB|ABA DFA|BAF DFA|dcd ede|~f3 def|~g3 gab|afd Bcd|efe e2d|cBA AdB|
ABA DFA|BAF DFA|dcd ede|~f3 def|~g3 gab|afd B2A|ABA efe|d3 dcd|
|:eAA efg|fdd fga|gfe fed|edB ABd|eAA efg|fdd fga|gfe dcB|A3 Bcd:|
